X: 799
P: Longways for as many as will
M: 6/4
L: 1/4
K: Gm
g |\
g>fe d>cB | cd/c/B A2G |\
a>gf =e2d | d3- d2 ][ d |
de^f gab | c'af b2d |\
efg cAF | B3 Bcd |\
e>dc dg^f | g3 a3 |\
b>ag a^fd | g3- g2 |]

